SVG_Azure_Grouped/Security/Key Vault.svg

<?xml version="1.0" encoding="UTF-8" standalone="no"?>
<!-- Generated by Microsoft Visio, SVG Export Key Vault.svg Page-1 -->

<svg
   xmlns:dc="http://purl.org/dc/elements/1.1/"
   xmlns:cc="http://creativecommons.org/ns#"
   xmlns:rdf="http://www.w3.org/1999/02/22-rdf-syntax-ns#"
   xmlns:svg="http://www.w3.org/2000/svg"
   xmlns="http://www.w3.org/2000/svg"
   xmlns:sodipodi="http://sodipodi.sourceforge.net/DTD/sodipodi-0.dtd"
   xmlns:inkscape="http://www.inkscape.org/namespaces/inkscape"
   width="0.80281365in"
   height="0.81125534in"
   viewBox="0 0 57.802253 58.4102"
   xml:space="preserve"
   class="st5"
   version="1.1"
   id="svg71"
   sodipodi:docname="Key Vault.svg"
   style="font-size:12px;overflow:visible;color-interpolation-filters:sRGB;fill:none;fill-rule:evenodd;stroke-linecap:square;stroke-miterlimit:3"
   inkscape:version="0.92.5 (2060ec1f9f, 2020-04-08)"><metadata
   id="metadata75"><rdf:RDF><cc:Work
       rdf:about=""><dc:format>image/svg+xml</dc:format><dc:type
         rdf:resource="http://purl.org/dc/dcmitype/StillImage" /></cc:Work></rdf:RDF></metadata><sodipodi:namedview
   pagecolor="#ffffff"
   bordercolor="#666666"
   borderopacity="1"
   objecttolerance="10"
   gridtolerance="10"
   guidetolerance="10"
   inkscape:pageopacity="0"
   inkscape:pageshadow="2"
   inkscape:window-width="640"
   inkscape:window-height="480"
   id="namedview73"
   showgrid="false"
   inkscape:zoom="1.4002013"
   inkscape:cx="38.531322"
   inkscape:cy="38.946134"
   inkscape:window-x="0"
   inkscape:window-y="0"
   inkscape:window-maximized="0"
   inkscape:current-layer="svg71" />
	<style
   type="text/css"
   id="style2">
	<![CDATA[
		.st1 {fill:url(#grad3-6);stroke:none;stroke-linecap:butt;stroke-width:34}
		.st2 {fill:#ffffff;stroke:none;stroke-linecap:butt;stroke-width:34}
		.st3 {fill:url(#grad7-12);stroke:none;stroke-linecap:butt;stroke-width:34}
		.st4 {fill:#ff9300;fill-opacity:0.75;stroke:none;stroke-linecap:butt;stroke-width:34}
		.st5 {fill:none;fill-rule:evenodd;font-size:12px;overflow:visible;stroke-linecap:square;stroke-miterlimit:3}
	]]>
	</style>

	<defs
   id="Patterns_And_Gradients">
		<radialGradient
   id="grad3-6"
   cx="20.545978"
   cy="100.66722"
   r="42.41702"
   gradientTransform="scale(0.99478354,1.0052438)"
   fx="20.545978"
   fy="100.66722"
   gradientUnits="userSpaceOnUse">
			<stop
   offset="0.18"
   stop-color="#5ea0ef"
   stop-opacity="1"
   id="stop4" />
			<stop
   offset="0.56"
   stop-color="#5c9fee"
   stop-opacity="1"
   id="stop6" />
			<stop
   offset="0.69"
   stop-color="#559ced"
   stop-opacity="1"
   id="stop8" />
			<stop
   offset="0.78"
   stop-color="#4a97e9"
   stop-opacity="1"
   id="stop10" />
			<stop
   offset="0.86"
   stop-color="#3990e4"
   stop-opacity="1"
   id="stop12" />
			<stop
   offset="0.93"
   stop-color="#2387de"
   stop-opacity="1"
   id="stop14" />
			<stop
   offset="0.99"
   stop-color="#087bd6"
   stop-opacity="1"
   id="stop16" />
			<stop
   offset="1"
   stop-color="#0078d4"
   stop-opacity="1"
   id="stop18" />
		</radialGradient>
		<radialGradient
   id="grad7-12"
   cx="0.0032372021"
   cy="56.242277"
   r="60.27072"
   gradientTransform="scale(0.78547062,1.2731221)"
   fx="0.0032372021"
   fy="56.242277"
   gradientUnits="userSpaceOnUse">
			<stop
   offset="0.27"
   stop-color="#ffd70f"
   stop-opacity="1"
   id="stop21" />
			<stop
   offset="0.49"
   stop-color="#ffcb12"
   stop-opacity="1"
   id="stop23" />
			<stop
   offset="0.88"
   stop-color="#feac19"
   stop-opacity="1"
   id="stop25" />
			<stop
   offset="1"
   stop-color="#fea11b"
   stop-opacity="1"
   id="stop27" />
		</radialGradient>
	</defs>
	<g
   id="g69"
   transform="translate(-34.002761,-34.00431)">
		<title
   id="title31">Page-1</title>
		<g
   id="group16759-1"
   transform="translate(37.9442,-35.7174)">
			<title
   id="title33">Key Vault.16759</title>
			<g
   id="group16760-2">
				<title
   id="title35">Sheet.16760</title>
				<g
   id="shape16761-3"
   transform="translate(4.5208,-2.26829)">
					<title
   id="title37">Sheet.16761</title>
					<path
   d="m 20.44,71.99 a 28.9012,29.2051 -180 1 0 28.9,29.2 28.9352,29.2395 -180 0 0 -28.9,-29.2 z m 0,54.42 a 24.9571,25.2195 0 1 1 24.95,-25.22 24.9571,25.2195 0 0 1 -24.95,25.22 z"
   class="st1"
   id="path39"
   inkscape:connector-curvature="0"
   style="fill:url(#grad3-6);stroke:none;stroke-width:34;stroke-linecap:butt" />
				</g>
				<g
   id="shape16762-7"
   transform="translate(0,-2.26829)">
					<title
   id="title42">Sheet.16762</title>
					<ellipse
   cx="24.9571"
   cy="101.191"
   rx="24.9571"
   ry="25.2195"
   class="st2"
   id="ellipse44"
   style="fill:#ffffff;stroke:none;stroke-width:34;stroke-linecap:butt" />
				</g>
				<g
   id="shape16763-9"
   transform="translate(8.04856)">
					<title
   id="title47">Sheet.16763</title>
					<path
   d="m 32.01,93.18 a 6.25626,6.32205 -180 0 0 0,-8.89 L 21.29,73.43 a 6.22226,6.28769 -180 0 0 -8.77,0 L 1.81,84.29 a 6.25626,6.32205 -180 0 0 0,8.89 l 8.91,9.18 a 1.73407,1.75231 0 0 1 0.51,1.24 v 16.76 a 2.14209,2.16462 -180 0 0 0.61,1.51 l 4.08,4.13 a 1.39406,1.40872 -180 0 0 1.97,0 l 3.95,-3.99 2.31,-2.33 a 0.850036,0.858975 -180 0 0 0,-1.16821 L 22.48,116.82 a 0.918039,0.927693 0 0 1 0,-1.27128 L 24.15,113.87 a 0.850036,0.858975 -180 0 0 0,-1.16821 L 22.48,111.02 a 0.918039,0.927693 0 0 1 0,-1.27128 L 24.15,108.06 a 0.850036,0.858975 -180 0 0 0,-1.16821 L 21.84,104.52 v -0.86 z M 16.91,76.07 a 3.5229599,3.56 0 0 1 0,7.12 3.5229599,3.56 0 1 1 0,-7.12 z"
   class="st3"
   id="path49"
   inkscape:connector-curvature="0"
   style="fill:url(#grad7-12);stroke:none;stroke-width:34;stroke-linecap:butt" />
				</g>
				<g
   id="shape16764-13"
   transform="translate(21.9309,-5.71921)">
					<title
   id="title52">Sheet.16764</title>
					<path
   d="m 0.24,126.29 a 0.782033,0.790257 -180 0 0 1.29205,-0.5841 L 1.53,111.96 A 0.816034,0.824616 -180 0 0 1.155984,111.27282 0.748031,0.755898 -180 0 0 -6.6e-5,111.96 L 0,125.7 a 0.95204,0.962052 -180 0 0 0.23801,0.5841 z"
   class="st4"
   id="path54"
   inkscape:connector-curvature="0"
   style="fill:#ff9300;fill-opacity:0.75;stroke:none;stroke-width:34;stroke-linecap:butt" />
				</g>
				<g
   id="shape16765-15"
   transform="translate(16.3887,-36.4211)">
					<title
   id="title57">Sheet.16765</title>
					<path
   d="m 0,125.45 a 0.952062,0.962074 -180 0 0 0.95204,0.96205 L 16.63,126.41 a 0.952062,0.962074 -180 0 0 0.95204,-0.96205 L 17.58,125.28 a 0.952062,0.962074 -180 0 0 -0.95204,-0.96205 L 0.95,124.31 a 0.952062,0.962074 -180 0 0 -0.95204,0.96205 z"
   class="st4"
   id="path59"
   inkscape:connector-curvature="0"
   style="fill:#ff9300;fill-opacity:0.75;stroke:none;stroke-width:34;stroke-linecap:butt" />
				</g>
				<g
   id="shape16766-17"
   transform="translate(16.3887,-33.0196)">
					<title
   id="title62">Sheet.16766</title>
					<path
   d="m 0,125.45 a 0.952062,0.962074 -180 0 0 0.95204,0.96205 L 16.63,126.41 a 0.952062,0.962074 -180 0 0 0.95204,-0.96205 L 17.58,125.28 a 0.952062,0.962074 -180 0 0 -0.95204,-0.96205 L 0.95,124.31 a 0.952062,0.962074 -180 0 0 -0.95204,0.96205 z"
   class="st4"
   id="path64"
   inkscape:connector-curvature="0"
   style="fill:#ff9300;fill-opacity:0.75;stroke:none;stroke-width:34;stroke-linecap:butt" />
				</g>
			</g>
		</g>
	</g>
</svg>

<?xml version="1.0" encoding="UTF-8" standalone="no"?>
<!DOCTYPE svg PUBLIC "-//W3C//DTD SVG 1.1//EN" "http://www.w3.org/Graphics/SVG/1.1/DTD/svg11.dtd">
<!-- Generated by Microsoft Visio, SVG Export Key Vault.svg Page-1 -->
<svg xmlns="http://www.w3.org/2000/svg" xmlns:xlink="http://www.w3.org/1999/xlink" xmlns:ev="http://www.w3.org/2001/xml-events"
		width="1.74726in" height="1.7557in" viewBox="0 0 125.802 126.41" xml:space="preserve" color-interpolation-filters="sRGB"
		class="st5">
	<style type="text/css">
	<![CDATA[
		.st1 {fill:url(#grad3-6);stroke:none;stroke-linecap:butt;stroke-width:34}
		.st2 {fill:#ffffff;stroke:none;stroke-linecap:butt;stroke-width:34}
		.st3 {fill:url(#grad7-12);stroke:none;stroke-linecap:butt;stroke-width:34}
		.st4 {fill:#ff9300;fill-opacity:0.75;stroke:none;stroke-linecap:butt;stroke-width:34}
		.st5 {fill:none;fill-rule:evenodd;font-size:12px;overflow:visible;stroke-linecap:square;stroke-miterlimit:3}
	]]>
	</style>

	<defs id="Patterns_And_Gradients">
		<radialGradient id="grad3-6" cx="0.5" cy="0.5" r="0.73">
			<stop offset="0.18" stop-color="#5ea0ef" stop-opacity="1"/>
			<stop offset="0.56" stop-color="#5c9fee" stop-opacity="1"/>
			<stop offset="0.69" stop-color="#559ced" stop-opacity="1"/>
			<stop offset="0.78" stop-color="#4a97e9" stop-opacity="1"/>
			<stop offset="0.86" stop-color="#3990e4" stop-opacity="1"/>
			<stop offset="0.93" stop-color="#2387de" stop-opacity="1"/>
			<stop offset="0.99" stop-color="#087bd6" stop-opacity="1"/>
			<stop offset="1" stop-color="#0078d4" stop-opacity="1"/>
		</radialGradient>
		<radialGradient id="grad7-12" cx="0" cy="0" r="1.4">
			<stop offset="0.27" stop-color="#ffd70f" stop-opacity="1"/>
			<stop offset="0.49" stop-color="#ffcb12" stop-opacity="1"/>
			<stop offset="0.88" stop-color="#feac19" stop-opacity="1"/>
			<stop offset="1" stop-color="#fea11b" stop-opacity="1"/>
		</radialGradient>
	</defs>
	<g>
		<title>Page-1</title>
		<g id="group16370-1" transform="translate(37.9442,-35.7174)">
			<title>Key Vault.16370</title>
			<g id="group16371-2">
				<title>Sheet.16371</title>
				<g id="shape16372-3" transform="translate(4.5208,-2.26829)">
					<title>Sheet.16372</title>
					<path d="M20.44 71.99 A28.9012 29.2051 -180 1 0 49.34 101.19 A28.9352 29.2395 -180 0 0 20.44 71.99 ZM20.44 126.41
								 A24.9571 25.2195 0 1 1 45.39 101.19 A24.9571 25.2195 0 0 1 20.44 126.41 Z" class="st1"/>
				</g>
				<g id="shape16373-7" transform="translate(0,-2.26829)">
					<title>Sheet.16373</title>
					<ellipse cx="24.9571" cy="101.191" rx="24.9571" ry="25.2195" class="st2"/>
				</g>
				<g id="shape16374-9" transform="translate(8.04856,0)">
					<title>Sheet.16374</title>
					<path d="M32.01 93.18 A6.25626 6.32205 -180 0 0 32.01 84.29 L21.29 73.43 A6.22226 6.28769 -180 0 0 12.52 73.43
								 L1.81 84.29 A6.25626 6.32205 -180 0 0 1.81 93.18 L10.72 102.36 A1.73407 1.75231 0 0 1 11.23 103.6
								 L11.23 120.36 A2.14209 2.16462 -180 0 0 11.84 121.87 L15.92 126 A1.39406 1.40872 -180 0 0 17.89
								 126 L21.84 122.01 L24.15 119.68 a0.850036 0.858975 -180 0 0 3.55271E-15 -1.16821 L22.48 116.82 a0.918039
								 0.927693 0 0 1 -3.55271E-15 -1.27128 L24.15 113.87 a0.850036 0.858975 -180 0 0 1.77636E-14 -1.16821
								 L22.48 111.02 a0.918039 0.927693 0 0 1 2.4869E-14 -1.27128 L24.15 108.06 a0.850036 0.858975 -180
								 0 0 3.19744E-14 -1.16821 L21.84 104.52 L21.84 103.66 L32.01 93.18 ZM16.91 76.07 A3.51915 3.55615
								 0 0 1 16.91 83.19 A3.51915 3.55615 0 1 1 16.91 76.07 Z" class="st3"/>
				</g>
				<g id="shape16375-13" transform="translate(21.9309,-5.71921)">
					<title>Sheet.16375</title>
					<path d="M0.24 126.29 a0.782033 0.790257 -180 0 0 1.29205 -0.584103 L1.53 111.96 a0.816034 0.824616 -180 0 0
								 -0.374016 -0.68718 a0.748031 0.755898 -180 0 0 -1.15605 0.68718 L0 125.7 a0.95204 0.962052 -180
								 0 0 0.23801 0.584103 Z" class="st4"/>
				</g>
				<g id="shape16376-15" transform="translate(16.3887,-36.4211)">
					<title>Sheet.16376</title>
					<path d="M0 125.45 a0.952062 0.962074 -180 0 0 0.95204 0.962052 L16.63 126.41 a0.952062 0.962074 -180 0 0 0.95204
								 -0.962052 L17.58 125.28 a0.952062 0.962074 -180 0 0 -0.95204 -0.962052 L0.95 124.31 a0.952062 0.962074
								 -180 0 0 -0.95204 0.962052 L0 125.45 Z" class="st4"/>
				</g>
				<g id="shape16377-17" transform="translate(16.3887,-33.0196)">
					<title>Sheet.16377</title>
					<path d="M0 125.45 a0.952062 0.962074 -180 0 0 0.95204 0.962052 L16.63 126.41 a0.952062 0.962074 -180 0 0 0.95204
								 -0.962052 L17.58 125.28 a0.952062 0.962074 -180 0 0 -0.95204 -0.962052 L0.95 124.31 a0.952062 0.962074
								 -180 0 0 -0.95204 0.962052 L0 125.45 Z" class="st4"/>
				</g>
			</g>
		</g>
	</g>
</svg>
